icons/lines/messages-one.svg

<svg xmlns="http://www.w3.org/2000/svg" width="24" height="24" viewBox="0 0 24 24" fill="none" stroke="currentColor" stroke-width="2" stroke-linecap="round" stroke-linejoin="round" >
  <path d="M17.98 10.79V14.79C17.98 15.05 17.97 15.3 17.94 15.54C17.71 18.24 16.12 19.58 13.19 19.58H12.79C12.54 19.58 12.3 19.7 12.15 19.9L10.95 21.5C10.42 22.21 9.56 22.21 9.03 21.5L7.82999 19.9C7.69999 19.73 7.41 19.58 7.19 19.58H6.79001C3.60001 19.58 2 18.79 2 14.79V10.79C2 7.86001 3.35001 6.27001 6.04001 6.04001C6.28001 6.01001 6.53001 6 6.79001 6H13.19C16.38 6 17.98 7.60001 17.98 10.79Z" stroke-miterlimit="10"/>
  <path d="M21.98 6.79001V10.79C21.98 13.73 20.63 15.31 17.94 15.54C17.97 15.3 17.98 15.05 17.98 14.79V10.79C17.98 7.60001 16.38 6 13.19 6H6.79004C6.53004 6 6.28004 6.01001 6.04004 6.04001C6.27004 3.35001 7.86004 2 10.79 2H17.19C20.38 2 21.98 3.60001 21.98 6.79001Z" stroke-miterlimit="10"/>
  <path d="M13.4955 13.25H13.5045"/>
  <path d="M9.9955 13.25H10.0045"/>
  <path d="M6.4955 13.25H6.5045"/>
  </svg>

<svg xmlns="http://www.w3.org/2000/svg" width="24" height="24" viewBox="0 0 24 24" fill="none" stroke="currentColor" stroke-width="2" stroke-linecap="round" stroke-linejoin="round">
  <path d="M13.496 13.25h.01" />
  <path d="M17.98 10.79c0-3.19-1.6-4.79-4.79-4.79h-6.4a6 6 0 0 0-.75.04C6.27 3.35 7.86 2 10.79 2h6.4c3.19 0 4.79 1.6 4.79 4.79v4c0 2.94-1.35 4.52-4.04 4.75a6 6 0 0 0 .04-.75" />
  <path d="M6.496 13.25h.01" />
  <path d="M6.79 6a6 6 0 0 0-.75.04C3.35 6.27 2 7.86 2 10.79v4c0 4 1.6 4.79 4.79 4.79h.4a1 1 0 0 1 .64.32l1.2 1.6c.53.71 1.39.71 1.92 0l1.2-1.6a.8.8 0 0 1 .64-.32h.4c2.93 0 4.52-1.34 4.75-4.04a6 6 0 0 0 .04-.75v-4c0-3.19-1.6-4.79-4.79-4.79" />
  <path d="M9.996 13.25h.01" />
</svg>
